X: 11442
Q: "Jig time."
M: 9/8
L: 1/8
K: D
dcd D2B AFD | dcd A2g f2e |
def efd cBA  | BdB AFA B2c |\
dcd D2B AFD | dcd efg fge |\
def efd cBA | (B/c/d)B AFA B2 |]


